public/sports/sports.svg

<svg width="56" height="56" viewBox="0 0 56 56" fill="none" xmlns="http://www.w3.org/2000/svg">
<g clip-path="url(#clip0_1294_8757)">
<path d="M55.8582 33.0525C53.6818 29.5633 50.6426 26.6474 47.069 24.6199C43.3824 22.5282 39.1803 21.4228 34.9173 21.4228C34.6403 21.4228 34.3633 21.428 34.0869 21.4372C33.1994 19.2244 31.8504 17.1785 30.1548 15.4866C26.8189 12.1592 22.3865 10.3267 17.6745 10.3267C12.9629 10.3267 8.53027 12.1591 5.1928 15.4866C1.84417 18.8266 0 23.2706 0 27.9998C0 32.7291 1.84417 37.173 5.19291 40.5131C8.53016 43.8405 12.9628 45.6727 17.6745 45.6727C20.4047 45.6727 23.1157 45.0346 25.5452 43.8259C28.5033 45.0394 31.6927 45.673 34.9173 45.673C39.1803 45.673 43.3823 44.5674 47.069 42.4757C50.6425 40.4482 53.6818 37.5323 55.8582 34.0431C56.0473 33.7401 56.0473 33.3557 55.8582 33.0525ZM32.1174 21.5852C30.1385 21.8109 28.1948 22.2718 26.3339 22.9613C27.0072 20.9569 28.0785 19.1091 29.4941 17.5157C30.5698 18.7299 31.4593 20.1104 32.1174 21.5852ZM18.6106 12.2272C22.17 12.4339 25.5073 13.8167 28.1699 16.1886C26.1893 18.39 24.8005 21.0333 24.1184 23.9086C23.6607 24.1315 23.2093 24.3682 22.7656 24.6199C21.5149 25.3295 20.3317 26.1501 19.226 27.0636H18.6106V12.2272ZM16.7383 12.2271V27.0636H11.6829C11.4727 23.0068 9.89811 19.2048 7.1797 16.1871C9.84298 13.8161 13.1799 12.4338 16.7383 12.2271ZM5.85375 17.5138C8.22106 20.1749 9.60072 23.5073 9.80711 27.0636H1.9005C2.10678 23.5072 3.48666 20.1748 5.85375 17.5138ZM1.9005 28.9358H9.80711C9.60083 32.4922 8.22106 35.8246 5.85375 38.4858C3.48655 35.8247 2.10678 32.4921 1.9005 28.9358ZM16.7383 43.7723C13.1799 43.5656 9.84287 42.1834 7.1797 39.8124C9.89811 36.7949 11.4727 32.9927 11.6829 28.9358H16.7383V29.4229C15.7103 30.5433 14.7838 31.7583 13.9765 33.0526C13.7874 33.3558 13.7874 33.7402 13.9765 34.0434C14.7838 35.3377 15.7103 36.5526 16.7383 37.6729V43.7723ZM15.8831 33.548C16.8085 32.1465 17.8885 30.8535 19.0933 29.6904V37.4056C17.8885 36.2423 16.8084 34.9493 15.8831 33.548ZM18.6106 43.7723V39.5067C19.8881 40.6343 21.2798 41.6328 22.7656 42.476C22.9423 42.5762 23.1211 42.6721 23.3002 42.7678C21.8028 43.3365 20.2171 43.6768 18.6106 43.7723ZM48.8692 39.0294C48.0067 39.6985 47.0967 40.3076 46.1451 40.8476C42.7396 42.7799 38.8571 43.8011 34.9173 43.8011C30.9775 43.8011 27.095 42.7799 23.6895 40.8476C22.738 40.3077 21.828 39.6987 20.9655 39.0294V28.0667C21.8279 27.3975 22.7379 26.7884 23.6895 26.2485C27.095 24.3165 30.9775 23.295 34.9173 23.295C38.857 23.295 42.7396 24.3163 46.1451 26.2485C47.0969 26.7885 48.0068 27.3976 48.8692 28.0668V39.0294ZM50.7414 37.4054V29.6903C51.9461 30.8535 53.026 32.1464 53.9515 33.5477C53.0261 34.9493 51.9462 36.2423 50.7414 37.4054Z" fill="white" stroke="black"/>
<path d="M46.7105 32.6118H44.9033V31.3097C44.9033 30.7927 44.4842 30.3735 43.9672 30.3735C43.4502 30.3735 43.031 30.7927 43.031 31.3097V32.6118H40.3783V31.3097C40.3783 30.7927 39.9591 30.3735 39.4421 30.3735C38.9251 30.3735 38.506 30.7927 38.506 31.3097V32.6118H35.8534V31.3097C35.8534 30.7927 35.4343 30.3735 34.9173 30.3735C34.4003 30.3735 33.9811 30.7927 33.9811 31.3097V32.6118H31.3286V31.3097C31.3286 30.7927 30.9094 30.3735 30.3924 30.3735C29.8754 30.3735 29.4563 30.7927 29.4563 31.3097V32.6118H26.8035V31.3097C26.8035 30.7927 26.3844 30.3735 25.8674 30.3735C25.3503 30.3735 24.9312 30.7927 24.9312 31.3097V32.6118H23.1241C22.6071 32.6118 22.188 33.0309 22.188 33.5479C22.188 34.0649 22.6071 34.4841 23.1241 34.4841H24.9313V35.7861C24.9313 36.3031 25.3505 36.7222 25.8675 36.7222C26.3845 36.7222 26.8036 36.3031 26.8036 35.7861V34.4841H29.4564V35.7861C29.4564 36.3031 29.8755 36.7222 30.3925 36.7222C30.9096 36.7222 31.3287 36.3031 31.3287 35.7861V34.4841H33.9812V35.7861C33.9812 36.3031 34.4004 36.7222 34.9174 36.7222C35.4344 36.7222 35.8535 36.3031 35.8535 35.7861V34.4841H38.5061V35.7861C38.5061 36.3031 38.9252 36.7222 39.4422 36.7222C39.9592 36.7222 40.3784 36.3031 40.3784 35.7861V34.4841H43.031V35.7861C43.031 36.3031 43.4502 36.7222 43.9672 36.7222C44.4842 36.7222 44.9033 36.3031 44.9033 35.7861V34.4841H46.7105C47.2275 34.4841 47.6467 34.0649 47.6467 33.5479C47.6466 33.0309 47.2276 32.6118 46.7105 32.6118Z" fill="white" stroke="black"/>
</g>
<defs>
<clipPath id="clip0_1294_8757">
<rect width="56" height="56" fill="white"/>
</clipPath>
</defs>
</svg>

<svg xmlns="http://www.w3.org/2000/svg" width="56" height="56" fill="none"><g fill="#fff" stroke="#000" clip-path="url(#a)"><path d="M55.86 33.05a24.66 24.66 0 0 0-21.77-11.62 17.82 17.82 0 0 0-3.94-5.94 17.56 17.56 0 0 0-12.48-5.16c-4.7 0-9.14 1.83-12.48 5.16A17.56 17.56 0 0 0 0 28c0 4.73 1.84 9.17 5.2 12.51a17.73 17.73 0 0 0 20.35 3.31 24.72 24.72 0 0 0 21.52-1.34 24.84 24.84 0 0 0 8.79-8.44.94.94 0 0 0 0-.99ZM32.12 21.6a24.7 24.7 0 0 0-5.79 1.37c.68-2 1.75-3.85 3.16-5.44a15.97 15.97 0 0 1 2.63 4.07Zm-13.5-9.36c3.55.2 6.89 1.59 9.55 3.96a17.6 17.6 0 0 0-4.05 7.72 24.33 24.33 0 0 0-4.9 3.15h-.6V12.23Zm-1.88 0v14.83h-5.06a17.52 17.52 0 0 0-4.5-10.87c2.66-2.37 6-3.76 9.56-3.96ZM5.85 17.5c2.37 2.66 3.75 6 3.96 9.55H1.9c.2-3.55 1.59-6.89 3.95-9.55ZM1.9 28.94h7.9a15.66 15.66 0 0 1-3.95 9.55c-2.36-2.67-3.74-6-3.95-9.55Zm14.84 14.83c-3.56-.2-6.9-1.59-9.56-3.96a17.52 17.52 0 0 0 4.5-10.87h5.06v.48a24.73 24.73 0 0 0-2.76 3.63.94.94 0 0 0 0 1c.8 1.29 1.73 2.5 2.76 3.62v6.1Zm-.86-10.22c.93-1.4 2-2.7 3.21-3.86v7.72a22.94 22.94 0 0 1-3.2-3.86Zm2.73 10.22v-4.26a24.73 24.73 0 0 0 4.69 3.26c-1.5.57-3.08.9-4.69 1Zm30.26-4.74a22.79 22.79 0 0 1-27.9 0V28.07a22.8 22.8 0 0 1 13.95-4.77 22.79 22.79 0 0 1 13.95 4.77v10.96Zm1.87-1.62v-7.72a22.95 22.95 0 0 1 3.21 3.86c-.92 1.4-2 2.7-3.2 3.86Z"/><path d="M46.71 32.61h-1.8v-1.3a.94.94 0 1 0-1.88 0v1.3h-2.65v-1.3a.94.94 0 0 0-1.87 0v1.3h-2.66v-1.3a.94.94 0 1 0-1.87 0v1.3h-2.65v-1.3a.94.94 0 0 0-1.87 0v1.3H26.8v-1.3a.94.94 0 1 0-1.87 0v1.3h-1.8a.94.94 0 1 0 0 1.87h1.8v1.3a.94.94 0 0 0 1.87 0v-1.3h2.66v1.3a.94.94 0 1 0 1.87 0v-1.3h2.65v1.3a.94.94 0 0 0 1.87 0v-1.3h2.66v1.3a.94.94 0 1 0 1.87 0v-1.3h2.65v1.3a.94.94 0 0 0 1.87 0v-1.3h1.81a.94.94 0 0 0 0-1.87Z"/></g><defs><clipPath id="a"><path fill="#fff" d="M0 0h56v56H0z"/></clipPath></defs></svg>
